X:1
T:Exaltabo Te
T:Giovanni Croce edit BMarble (editorial accidentals in parentheses)
T:Exaltabo Te
T:Copyright © 2015 by CPDL.  This edition can be fully distributed, duplicated, performed, and recorded. 
T:Copyright © 2015 by CPDL.  This edition can be fully distributed, duplicated, performed, and recorded. 
T:Copyright © 2015 by CPDL.  This edition can be fully distributed, duplicated, performed, and recorded. 
T:Copyright © 2015 by CPDL.  This edition can be fully distributed, duplicated, performed, and recorded. 
T:Copyright © 2015 by CPDL.  This edition can be fully distributed, duplicated, performed, and recorded. 
C:Giovanni Croce
C:edit BMarble
C:(editorial accidentals in parentheses)
Z:Copyright © 2015 by CPDL.  This edition can be fully distributed, duplicated, performed, and recorded.
Z:
%%score [ 1 2 3 4 ]
L:1/8
Q:1/2=84
M:4/2
K:Ab
V:1 treble nm="Soprano" snm="S."
V:2 treble nm="Alto" snm="A."
V:3 treble-8 transpose=-12 nm="Tenor" snm="T."
V:4 bass nm="Bass" snm="B."
V:1
"^Ps 30: I praise you, Lord, for you raised me upand did not let my enemies triumph over me.O Lord my God, I cried out to you and you healed me." z4 F6 F2 A4 | %1
w: Ex- al- ta-|
 =G2 G2 B4 F8 | F4 _G6 G2 E4 | F8 F4 F4- | F2 F2 A4 _G2 E2 G4 | F4 F8 F4- | F4 F4 D4 D2 E2 | %7
w: bo te Do- mi-|ne, ex- al- ta-|bo te, ex-|* al- ta- bo te Do-|mi- ne, quo-|* ni- am su- sce-|
 F4 F4 z4 F2 G2 | (A8 E4) F4 | =G4 G2 A2 B4 F4 | F16- | F16 | z16 | z8 z4 B4 | B4 B4 A6 A2 | %15
w: pi- sti, su- sce-|pi- * sti|me, su- sce- pi- sti|me.|_||nec|de- le- cta- sti|
 A4 =G4 A4 F4 | _G8 F4 F4- | F4 E4 F8- | F16 | z4 B6 B2 =A4 | B4 F4 _G8 | F4 F4 F8 | %22
w: i- ni- mi- cos|me- os su-|* per me:|_|Do- mi- ne|De- us me-|us, cla- ma-|
 F4 B4 =A4 A4- | A4 B4 _G8 |"^rit." F16 | F16 |] %26
w: vi ad te, et|_ sa- na-|sti|me.|
V:2
 B,6 B,2 D4 C2 C2 | E4 D4 D4 F4- | F2 F2 B,4 B,8- | B,4 _A,4 D6 D2 | C2 C4 C2 E4 E2 E2 | %5
w: Ex- al- ta- bo te|Do- mi- ne, ex-|* al- ta- bo|_ te Do- mi-|ne, ex- al- ta- bo te|
 D4 D4 C4 C4- | C4 C4 B,4 B,2 C2 | D4 B,4 F2 E2 D4 | C8 z4 C2 !courtesy!=D2 | E4 E4 F4 _D2 E2 | %10
w: Do- mi- ne, quo-|* ni- am su- sce-|pi- sti, su- sce- pi-|sti, su- sce-|pi- sti me, su- sce-|
 (F4 D4 C6) C2 | B,8 z4 F4 | F4 F4 E6 E2 | E4 D4 _G4 G4 | F8 F4 F4- | F4 B,4 C4 _D4 | %16
w: pi- * * sti|me. nec|de- le- cta- sti|i- ni- mi- cos|me- os, i-|* ni- mi- cos|
 (E4 D2 C2 D4) C4 | (D4 C2 B,2 D4) C4 | B,8 z4 F4- | F2 F2 E4 F4 C4 | (D6 C2 B,4 E4) | C4 D4 C8 | %22
w: me- * * * os|su- * * * per|me: Do-|* mi- ne De- us|me- * * *|us cla- ma-|
 D4 E4 F4 F4- | F4 F4 E8- | (E4 D4) C8 | =D16 |] %26
w: vi ad te, et|_ sa- na-|* * sti|me.|
V:3
 z16 | z4 B6 B2 d4 | c2 c2 e4 d4 c2 B2 | d4 c4 B2 B4 B2 | A4 F4 B4 B4- | B4 B4 =A4 A4- | %6
w: |Ex- al- ta-|bo te Do- * * *|* mi- ne, ex- al-|ta- bo te Do-|* mi- ne, quo-|
 A4 =A4 B8 | B2 c2 d4 _A4 B4 | A2 B2 c8 A4 | B4 B2 c2 (_d6 cB | _A4) (B6 =AG A4) | B4 d4 d4 d4 | %12
w: * ni- am|su- sce- pi- sti me,|su- sce- pi- sti|me, su- sce- pi- * *|* sti _ _ _|me, nec de- le-|
 c6 c2 c4 B4 | c4 A4 (B6 c2 | d8) c4 c4- | (c2 !courtesy!=d2 e8) B4 | B8 z8 | z4 B6 B2 =A4 | %18
w: cta- sti i- ni-|mi- cos me- *|* os su-|* * * per|me:|Do- mi- ne|
 B4 d4 c8 | B4 B4 (d4 c4) | B12 B4 | =A4 B4 A8 | B4 _G4 F4 c4- | c4 B8 c4- | (c4 B8) =A4 | B16 |] %26
w: De- us me-|us, cla- ma- *|vi ad|te, cla- ma-|vi ad te, et|_ sa- na-|* * sti|me.|
V:4
 z16 | z8 B,,6 B,,2 | F,4 E,2 E,2 _G,4 G,4 | F,8 B,,6 B,,2 | F,4 F,2 F,2 E,4 E,4 | B,,8 F,8- | %6
w: |Ex- al-|ta- bo te Do- mi-|ne, ex- al-|ta- bo te Do- mi-|ne, quo-|
 F,4 F,4 B,,8 | z4 B,,2 C,2 D,4 B,,4 | F,4 F,2 G,2 A,4 F,4 | E,8 B,,2 C,2 D,4- | D,4 B,,4 F,8 | %11
w: * ni- am|su- sce- pi- sti|me, su- sce- pi- sti|me, su- sce- pi-|* sti me,|
 z4 B,4 B,4 B,4 | A,6 A,2 A,4 =G,4 | A,4 F,4 (E,2 F,2 _G,2 A,2 | B,4) B,,4 F,6 F,2 | %15
w: nec de- le-|cta- sti i- ni-|mi- cos me- * * *|* os, i- ni-|
 F,4 E,4 A,4 B,4 | E,2 F,2 _G,2 A,2 B,4 A,4 | (_G,8 F,8) | B,,4 B,6 B,2 =A,4 | B,4 _G,4 F,8 | %20
w: mi- cos me- os|su- * * * * *|per _|me: Do- mi- ne|De- us me-|
 B,4 B,,4 E,8 | F,4 B,,4 F,8 | z8 z4 F,4- | F,4 =D,4 E,8 | F,16 | B,,16 |] %26
w: us cla- ma-|vi ad te,|et|_ sa- na-|sti|me.|

